blockchains/ethereum/assets/0x80fB784B7eD66730e8b1DBd9820aFD29931aab03/logo.svg

<svg fill="none" height="250" viewBox="0 0 250 250" width="250" xmlns="http://www.w3.org/2000/svg" xmlns:xlink="http://www.w3.org/1999/xlink"><linearGradient id="a" gradientUnits="userSpaceOnUse" x1="-2.5" x2="290" y1="125" y2="125"><stop offset="0" stop-color="#08bbc9"/><stop offset=".5" stop-color="#12a3ca"/><stop offset="1" stop-color="#149aca"/></linearGradient><clipPath id="b"><path d="m0 0h250v250h-250z"/></clipPath><g clip-path="url(#b)"><path d="m125 250c69.036 0 125-55.964 125-125 0-69.0356-55.964-125-125-125-69.0356 0-125 55.9644-125 125 0 69.036 55.9644 125 125 125z" fill="url(#a)"/><path d="m133.625 167.025-49.1388 49.138-14.0126-15.087 34.0524-34.051-35.3448-35.345 15.0862-15.086zm28.664-28.234 15.086-15.085-35.349-35.3446 34.051-34.0525-14.008-15.0862-49.354 49.1387 49.57 50.4296zm-71.7716-28.016 49.5686 50.431 15.086-15.082-49.568-49.5738z" fill="#fff"/></g></svg>

<svg width="250" height="250" viewBox="0 0 250 250" fill="none" xmlns="http://www.w3.org/2000/svg">
<g clip-path="url(#clip0_30_547)">
<path d="M125 250C194.036 250 250 194.036 250 125C250 55.9644 194.036 0 125 0C55.9644 0 0 55.9644 0 125C0 194.036 55.9644 250 125 250Z" fill="url(#paint0_linear_30_547)"/>
<path d="M133.625 167.025L84.4862 216.163L70.4736 201.076L104.526 167.025L69.1812 131.68L84.2674 116.594L133.625 167.025ZM162.289 138.791L177.375 123.706L142.026 88.3614L176.077 54.3089L162.069 39.2227L112.715 88.3614L162.285 138.791H162.289ZM90.5174 110.775L140.086 161.206L155.172 146.124L105.604 96.5502L90.5174 110.775Z" fill="white"/>
</g>
<defs>
<linearGradient id="paint0_linear_30_547" x1="-2.5" y1="125" x2="290" y2="125" gradientUnits="userSpaceOnUse">
<stop stop-color="#08BBC9"/>
<stop offset="0.5" stop-color="#12A3CA"/>
<stop offset="1" stop-color="#149ACA"/>
</linearGradient>
<clipPath id="clip0_30_547">
<rect width="250" height="250" fill="white"/>
</clipPath>
</defs>
</svg>
